X:1
T:Phillips (Woodbury), CM
T:Phillips (Woodbury), CM
T:Isaac Baker Woodbury (1819-1858)
T:Public Domain Courtesy of the Cyber Hymnal™
C:Isaac Baker Woodbury (1819-1858)
Z:Public Domain
Z:Courtesy of the Cyber Hymnal™
%%score 1 ( 2 3 )
L:1/8
Q:1/4=140
M:3/4
K:D
V:1 treble 
V:2 bass 
V:3 bass 
V:1
 [DF]2 | [DF]4 [EG]2 | [FA]4 [GB]2 | [GB]4 [FA]2 | [DF]4 [DF]2 | [CE]4 [DF]2 | [EG]4 [DF]2 | %7
 !fermata![CE]4 [CE]2 | [DF]4 [EG]2 | [FA]4 [GB]2 | [GB]4 [FA]2 | [DF]4 ([DF][EG]) | [FA]4 [GB]2 | %13
 ([FA]2 [DF]2) [CE]2 | [DF]4 |] %15
V:2
 [D,A,]2 | [D,A,]4 [D,A,]2 | (A,2 D2) [D,D]2 | [D,D]4 [D,D]2 | [D,A,]4 [D,A,]2 | %5
 [A,,A,]4 [A,,A,]2 | [A,,A,]4 [A,,A,]2 | !fermata![A,,A,]4 [A,,A,]2 | [D,A,]4 [D,A,]2 | %9
 (A,2 D2) [D,D]2 | [D,D]4 [D,D]2 | [D,A,]4 [D,A,]2 | (A,2 D2) [G,D]2 | (D2 A,2) [A,,A,]2 | %14
 [D,A,]4 |] %15
V:3
 x2 | x6 | D,4 x2 | x6 | x6 | x6 | x6 | x6 | x6 | D,4 x2 | x6 | x6 | D,4 x2 | A,4 x2 | x4 |] %15

